src/components/CallToAction/images/rocket.svg

<svg xmlns="http://www.w3.org/2000/svg" width="20" height="20" fill="none" viewBox="0 0 20 20"><path fill="#fff" d="M2.52257 8.70978L4.84297 9.6715C4.58125 10.3317 4.37265 11.0121 4.21875 11.7059L4.13047 12.1059L7.45707 15.4341L7.85707 15.3482V15.3474C8.55003 15.1943 9.23051 14.9857 9.89067 14.7239L10.8524 17.0443L10.8532 17.0436C10.8719 17.0904 10.9133 17.1248 10.9625 17.1342C11.0125 17.1436 11.0633 17.1279 11.0985 17.092L12.5524 15.6381H12.5532C13.0328 15.1584 13.2868 14.4975 13.2532 13.8201L13.2008 12.8858C15.893 10.8975 18.6164 7.41156 19.3586 1.32796C19.4016 1.01858 19.2977 0.706859 19.0774 0.485779C18.8571 0.264679 18.5461 0.159219 18.2368 0.199839C12.1548 0.947499 8.66636 3.67404 6.67896 6.35764L5.74692 6.30998C5.07036 6.27327 4.4102 6.52326 3.92896 6.99982L2.47506 8.45372C2.43365 8.48888 2.4149 8.54279 2.42428 8.59591C2.43443 8.64904 2.47193 8.69201 2.52272 8.70997L2.52257 8.70978ZM11.8508 5.16518C12.3664 4.6519 13.1398 4.49956 13.8117 4.77846C14.4836 5.05736 14.9211 5.71284 14.9211 6.44018C14.9211 7.1683 14.4836 7.82378 13.8117 8.10268C13.1398 8.38158 12.3664 8.22925 11.8508 7.71518C11.5117 7.37768 11.3211 6.91908 11.3211 6.44018C11.3211 5.96206 11.5117 5.50346 11.8508 5.16518ZM2.08897 15.6996C1.70381 15.5644 1.29053 15.5316 0.888968 15.6035C0.816312 15.6191 0.74053 15.5965 0.688968 15.5433C0.624124 15.4793 0.606156 15.3808 0.644436 15.2972C1.071 14.3816 2.20068 12.5394 4.24684 14.0277C4.26871 14.0472 4.28043 14.0746 4.28043 14.1035C4.28043 14.1324 4.26871 14.1605 4.24684 14.1793C3.69138 14.6168 3.3773 15.2925 3.40074 15.9996C3.40386 16.0847 3.47183 16.1527 3.55699 16.1558C4.26011 16.184 4.93589 15.8769 5.37653 15.3277C5.39606 15.3035 5.42496 15.2902 5.45543 15.2902C5.48668 15.2902 5.51559 15.3035 5.53512 15.3277C5.8195 15.666 6.60074 16.7699 5.73512 17.8355C5.357 18.2902 4.8148 18.5777 4.22652 18.6355C3.38668 18.7254 1.83512 18.9996 1.20072 19.7238C1.14916 19.7847 1.06713 19.8129 0.989 19.7964C0.910094 19.7793 0.846812 19.7207 0.824938 19.6433C0.600718 18.8793 0.253058 17.1715 2.089 15.6995L2.08897 15.6996Z"/></svg>

<svg fill="none" viewBox="0 0 20 20"><path fill="#fff" d="M2.523 8.71l2.32.961a13.36 13.36 0 00-.624 2.035l-.089.4 3.327 3.328.4-.086a13.304 13.304 0 002.034-.624l.961 2.32h.001a.15.15 0 00.245.048l1.454-1.454h.001a2.4 2.4 0 00.7-1.818l-.052-.934c2.692-1.988 5.415-5.474 6.158-11.558A.998.998 0 0018.237.2c-6.082.747-9.57 3.474-11.558 6.158l-.932-.048A2.398 2.398 0 003.929 7L2.475 8.454a.151.151 0 00-.05.142.15.15 0 00.098.114zm9.328-3.545a1.8 1.8 0 112.54 2.552 1.8 1.8 0 01-2.54-2.552zM2.089 15.7a2.364 2.364 0 00-1.2-.096.216.216 0 01-.2-.06.218.218 0 01-.045-.247c.427-.915 1.557-2.758 3.603-1.27a.1.1 0 01.033.077.1.1 0 01-.033.075A2.223 2.223 0 003.4 16a.162.162 0 00.156.157 2.22 2.22 0 001.82-.828.1.1 0 01.078-.038c.032 0 .06.014.08.038.284.338 1.066 1.442.2 2.508-.378.454-.92.742-1.508.8-.84.09-2.392.364-3.026 1.088a.218.218 0 01-.376-.08C.6 18.878.253 17.171 2.089 15.7z"/></svg>
